X: 69
T:Missa L'homme arm\'e sexti toni / Sanctus
N: Derived from Jos0602d-Missa_Lhomme_arme_sexti_toni-Sanctus.krn
C: Josquin des Prez
%%abc-version 2.0
%%abcx-abcm2ps-target-version 5.9.1 (29 Sep 2008)
%%abc-creator hum2abc beta
%%abcx-conversion-date 2019/02/12 16:15:41
%%abc-edited-by Jesse Rodin
%%abc-edited-by Jesse Rodin; Victoria Chang 2011/09/04
%%abcx-initial-encoding-date 2011/09/04/
%%humdrum-veritas 720175928
%%humdrum-veritas-data 678523220
%%linebreak <none>
%%barnumbers 0
L: 1/4
M: 3/1
Q: 1/2=120
%%staves [1 2 3 4]
V: 1 clef=treble
V: 2 clef=treble-8
V: 3 clef=treble-8
V: 4 clef=bass
K: F
[V:1] F12- | 
[V:2] z12 | 
[V:3] z12 | 
[V:4] F,,8F,,4 | 
[V:1] F8D4 | 
[V:2] F8F4 | 
[V:3] z12 | 
[V:4] F,,4B,,6A,,2 | 
[V:1] C4z4G4 | 
[V:2] F4B6A2 | 
[V:3] z12 | 
[V:4] A,,4G,,8 | 
[V:1] A2c4B2A2G2 | 
[V:2] A4c6B2 | 
[V:3] F8F4 | 
[V:4] F,,12- | 
[V:1] F4G8 | 
[V:2] A4G8 | 
[V:3] F4B6A2 | 
[V:4] F,,4_E,,8 | 
[V:1] C12 | 
[V:2] F6EDC4- | 
[V:3] A4c6B2 | 
[V:4] F,,8z4 | 
[V:1] z4z4G4 | 
[V:2] C2D2E2F4E2 | 
[V:3] A4G8 | 
[V:4] C,8C,4 | 
[V:1] A6c4BA | 
[V:2] F8z4 | 
[V:3] F6EDC4- | 
[V:4] F,,12 | 
[V:1] G6F2G4 | 
[V:2] z12 | 
[V:3] C2D2E2F4E2 | 
[V:4] C,6A,,2B,,2C,2 | 
[V:1] A8z4 | 
[V:2] c6A2B2c2 | 
[V:3] F8z4 | 
[V:4] A,,6F,,2G,,2A,,2 | 
[V:1] c6A2B2c2 | 
[V:2] A6F2G2A2 | 
[V:3] z12 | 
[V:4] F,,8z4 | 
[V:1] A6F2G2A2 | 
[V:2] F8z4 | 
[V:3] c6A2B2c2 | 
[V:4] F,,8z4 | 
[V:1] F2c4A2B2c2 | 
[V:2] z12 | 
[V:3] A6F2G2A2 | 
[V:4] F,,8z4 | 
[V:1] A6c3BAG | 
[V:2] c6c2c4 | 
[V:3] F8z4 | 
[V:4] F,,8F,4 | 
[V:1] B2A3GFED2E2 | 
[V:2] d2c4A2B2c2 | 
[V:3] z12 | 
[V:4] B,,2F,3E,F,2G,2E,2 | 
[V:1] C3DEFG3Ac2 | 
[V:2] A4G8 | 
[V:3] c6c2c4 | 
[V:4] F,3E,C,3D,_E,3D, | 
[V:1] B2A3GFEDCA2- | 
[V:2] F12 | 
[V:3] d2c4A2B2c2 | 
[V:4] B,,2F,4F,,2B,,2A,,2 | 
[V:1] AGF2E2F4E2 | 
[V:2] c12- | 
[V:3] A4G8 | 
[V:4] F,,4C,8 | 
[V:1] F12 ||  
[V:2] c12 ||  
[V:3] F12 ||  
[V:4] F,,12 ||  
[V:1]  [K:F] [K:clef=treble][M:2/1]G6FE | 
[V:2]  [K:F] [K:clef=treble-8][M:2/1]z8 | 
[V:3]  [K:F] [K:clef=treble-8][M:2/1]z8 | 
[V:4]  [K:F] [K:clef=bass][M:2/1]z8 | 
[V:1] F2G2C4 | 
[V:2] z8 | 
[V:3] z8 | 
[V:4] z8 | 
[V:1] z4G4- | 
[V:2] c6BA | 
[V:3] z8 | 
[V:4] z8 | 
[V:1] G4A4 | 
[V:2] B2c2F4 | 
[V:3] z8 | 
[V:4] z8 | 
[V:1] G2A4GF | 
[V:2] z4c4- | 
[V:3] z8 | 
[V:4] z8 | 
[V:1] E4D4 | 
[V:2] c4d4 | 
[V:3] z8 | 
[V:4] z8 | 
[V:1] z4A4- | 
[V:2] c2d4cB | 
[V:3] z8 | 
[V:4] z8 | 
[V:1] A4B4 | 
[V:2] A4G4 | 
[V:3] z8 | 
[V:4] z8 | 
[V:1] A2B4AG | 
[V:2] z4d4- | 
[V:3] z8 | 
[V:4] z8 | 
[V:1] F4G4 | 
[V:2] d4_e4 | 
[V:3] z8 | 
[V:4] z8 | 
[V:1] z4C4 | 
[V:2] d2_e4dc | 
[V:3] z8 | 
[V:4] z8 | 
[V:1] D4E4 | 
[V:2] B4c4 | 
[V:3] z8 | 
[V:4] z8 | 
[V:1] F4E2F2- | 
[V:2] z2F2G2A2 | 
[V:3] z8 | 
[V:4] z8 | 
[V:1] FEDCDCG2- | 
[V:2] B3ABABG | 
[V:3] z8 | 
[V:4] z8 | 
[V:1] GFEDEDA2- | 
[V:2] c3BcBcA | 
[V:3] z8 | 
[V:4] z8 | 
[V:1] AGFEFEA2- | 
[V:2] d3cA3B | 
[V:3] z8 | 
[V:4] z8 | 
[V:1] A2G4F2- | 
[V:2] c3BGABc | 
[V:3] z8 | 
[V:4] z8 | 
[V:1] F2E2D4 | 
[V:2] d2c4=B2 | 
[V:3] z8 | 
[V:4] z8 | 
[V:1] C8 ||  
[V:2] c8 ||  
[V:3] z8 ||  
[V:4] z8 ||  
[V:1]  [K:F] [K:clef=treble][M:2/1]z8 | 
[V:2]  [K:F] [K:clef=treble-8][M:2/1]z8 | 
[V:3]  [K:F] [K:clef=treble-8][M:2/1]c6BA | 
[V:4]  [K:F] [K:clef=bass][M:2/1]z8 | 
[V:1] z8 | 
[V:2] z8 | 
[V:3] B2c2F4 | 
[V:4] z8 | 
[V:1] z8 | 
[V:2] z8 | 
[V:3] z4c4- | 
[V:4] F,6E,D, | 
[V:1] z8 | 
[V:2] z8 | 
[V:3] c4d4 | 
[V:4] E,2F,2B,,4 | 
[V:1] z8 | 
[V:2] z8 | 
[V:3] c2d4cB | 
[V:4] z4F,4- | 
[V:1] z8 | 
[V:2] z8 | 
[V:3] A4G4 | 
[V:4] F,4G,4 | 
[V:1] z8 | 
[V:2] z8 | 
[V:3] z4d4- | 
[V:4] F,2G,4F,E, | 
[V:1] z8 | 
[V:2] z8 | 
[V:3] d4_e4 | 
[V:4] D,4C,4 | 
[V:1] z8 | 
[V:2] z8 | 
[V:3] d2_e4dc | 
[V:4] z4G,4- | 
[V:1] z8 | 
[V:2] z8 | 
[V:3] B4c4 | 
[V:4] G,4A,4 | 
[V:1] z8 | 
[V:2] z8 | 
[V:3] z4F4 | 
[V:4] G,2A,4G,F, | 
[V:1] z8 | 
[V:2] z8 | 
[V:3] G4A4 | 
[V:4] E,4F,4 | 
[V:1] z8 | 
[V:2] z8 | 
[V:3] B4A2B2- | 
[V:4] z2B,,2C,2D,2 | 
[V:1] z8 | 
[V:2] z8 | 
[V:3] BAGFGFc2- | 
[V:4] _E,3D,E,D,E,C, | 
[V:1] z8 | 
[V:2] z8 | 
[V:3] cBAGAGd2- | 
[V:4] F,3_E,F,E,F,D, | 
[V:1] z8 | 
[V:2] z8 | 
[V:3] dcBABAd2- | 
[V:4] G,3F,D,3_E, | 
[V:1] z8 | 
[V:2] z8 | 
[V:3] d2c4B2- | 
[V:4] F,3_E,C,D,E,F, | 
[V:1] z8 | 
[V:2] z8 | 
[V:3] B2A2G4 | 
[V:4] G,2F,4E,2 | 
[V:1] z8 ||  
[V:2] z8 ||  
[V:3] F8 ||  
[V:4] F,8 ||  
[V:1]  [K:F] [K:clef=treble][M:3/1]E6F2G4 | 
[V:2]  [K:F] [K:clef=treble-8][M:3/1]z12 | 
[V:3]  [K:F] [K:clef=treble-8][M:3/1]C8C4 | 
[V:4]  [K:F] [K:clef=bass][M:3/1]z12 | 
[V:1] A4F2G2A4 | 
[V:2] A6B2c4 | 
[V:3] F12 | 
[V:4] F,,8F,,4 | 
[V:1] z2D4E2F4 | 
[V:2] d4B2c2d4 | 
[V:3] z4z4F4 | 
[V:4] B,,12 | 
[V:1] G6F4ED | 
[V:2] z2G4A2B4 | 
[V:3] E4D8 | 
[V:4] z4z4B,,4 | 
[V:1] E2C2E2D4B,2 | 
[V:2] c6BAB4 | 
[V:3] C4G4G4 | 
[V:4] A,,4G,,8 | 
[V:1] A,2C4B,2G,4 | 
[V:2] c2A3GF4E2 | 
[V:3] C12 | 
[V:4] F,,4C,4C,4 | 
[V:1] F,4z4A,4 | 
[V:2] F3GA2B2c2d2- | 
[V:3] z4z4F4 | 
[V:4] F,,12 | 
[V:1] B,4C4D4 | 
[V:2] dcBAG2A2BAGF | 
[V:3] G4E2F2D4 | 
[V:4] z4z4B,,4 | 
[V:1] z2E2F4G4 | 
[V:2] E2C4D4E2 | 
[V:3] C4z4G4 | 
[V:4] C,4A,,2B,,2G,,4 | 
[V:1] z2C2D4E4 | 
[V:2] F3GA2B2G2A2- | 
[V:3] A4F2G2E4 | 
[V:4] F,,4z4C,4 | 
[V:1] z2F2G4A4 | 
[V:2] AGFED2E4F2 | 
[V:3] D4z4c4 | 
[V:4] D,4B,,2C,2A,,4 | 
[V:1] B4G4A4 | 
[V:2] GABcd2e2c2d2- | 
[V:3] d4B2c2A4 | 
[V:4] G,,4z4F,4 | 
[V:1] B4G2A4F2 | 
[V:2] d2e3dc4B2 | 
[V:3] G4z4F4 | 
[V:4] G,4E,2F,2D,4 | 
[V:1] E2G4F2D4 | 
[V:2] c2G2B8 | 
[V:3] G8F4 | 
[V:4] C,4z4B,,4 | 
[V:1] C4z4G4 | 
[V:2] A4G6F2 | 
[V:3] E4D8 | 
[V:4] C,8B,,4 | 
[V:1] A4B8 | 
[V:2] F4D4E4 | 
[V:3] C4G4G4 | 
[V:4] A,,4G,,8 | 
[V:1] A2G4F4E2 | 
[V:2] F4G8 | 
[V:3] C12- | 
[V:4] F,,4C,4C,4 | 
[V:1] F12 ||  
[V:2] F12 ||  
[V:3] C12 ||  
[V:4] F,,12 ||  
[V:1]  [K:F] [K:clef=treble][M:2/1]C6D2 | 
[V:2]  [K:F] [K:clef=treble-8][M:2/1]z8 | 
[V:3]  [K:F] [K:clef=treble-8][M:2/1]z8 | 
[V:4]  [K:F] [K:clef=bass][M:2/1]z8 | 
[V:1] E4F4 | 
[V:2] z8 | 
[V:3] z8 | 
[V:4] z8 | 
[V:1] G4A4 | 
[V:2] z8 | 
[V:3] z8 | 
[V:4] z8 | 
[V:1] z2A4G2 | 
[V:2] z8 | 
[V:3] F6G2 | 
[V:4] z8 | 
[V:1] F2E2D4 | 
[V:2] z8 | 
[V:3] A4B4 | 
[V:4] z8 | 
[V:1] CDECF4 | 
[V:2] z8 | 
[V:3] c4d4 | 
[V:4] z8 | 
[V:1] FGAFB2A2- | 
[V:2] z8 | 
[V:3] z2d4c2 | 
[V:4] z8 | 
[V:1] AGF4E2 | 
[V:2] z8 | 
[V:3] B2A2G4 | 
[V:4] z8 | 
[V:1] F8 ||  
[V:2] z8 ||  
[V:3] F8 ||  
[V:4] z8 ||  
[V:1]  [K:F] [K:clef=treble][M:2/1]z8 | 
[V:2]  [K:F] [K:clef=treble-8][M:2/1]F8 | 
[V:3]  [K:F] [K:clef=treble-8][M:2/1]z8 | 
[V:4]  [K:F] [K:clef=bass][M:2/1]F,6E,D, | 
[V:1] z8 | 
[V:2] G4F4 | 
[V:3] z8 | 
[V:4] E,2C,2D,2F,2- | 
[V:1] z8 | 
[V:2] G4A2F2 | 
[V:3] z8 | 
[V:4] F,2E,2F,4 | 
[V:1] z8 | 
[V:2] A4z2F2 | 
[V:3] z8 | 
[V:4] z2F,3E,D,C, | 
[V:1] z8 | 
[V:2] G2F2G2A2 | 
[V:3] z8 | 
[V:4] B,,2D,2C,4 | 
[V:1] z8 | 
[V:2] B2F2B4 | 
[V:3] z8 | 
[V:4] B,,6C,2 | 
[V:1] z8 | 
[V:2] F2G2F2G2 | 
[V:3] z8 | 
[V:4] D,2E,2F,2B,,2 | 
[V:1] z8 | 
[V:2] A2B2c2F2 | 
[V:3] z8 | 
[V:4] F,8- | 
[V:1] z8 ||  
[V:2] c8 ||  
[V:3] z8 ||  
[V:4] F,8 ||  
[V:1]  [K:F] [K:clef=treble][M:2/1]C6D2 | 
[V:2]  [K:F] [K:clef=treble-8][M:2/1]z8 | 
[V:3]  [K:F] [K:clef=treble-8][M:2/1]z8 | 
[V:4]  [K:F] [K:clef=bass][M:2/1]z8 | 
[V:1] E4F4 | 
[V:2] z8 | 
[V:3] z8 | 
[V:4] z8 | 
[V:1] G4A4 | 
[V:2] z8 | 
[V:3] z8 | 
[V:4] z8 | 
[V:1] z2A4G2 | 
[V:2] z8 | 
[V:3] F6G2 | 
[V:4] z8 | 
[V:1] F2E2D4 | 
[V:2] z8 | 
[V:3] A4B4 | 
[V:4] z8 | 
[V:1] CDECF4 | 
[V:2] z8 | 
[V:3] c4d4 | 
[V:4] z8 | 
[V:1] FGAFB2A2- | 
[V:2] z8 | 
[V:3] z2d4c2 | 
[V:4] z8 | 
[V:1] AGF4E2 | 
[V:2] z8 | 
[V:3] B2A2G4 | 
[V:4] z8 | 
[V:1] F8 ||  
[V:2] z8 ||  
[V:3] F8 ||  
[V:4] z8 ||  



